public/piece/california/wK.svg

<?xml version="1.0" encoding="UTF-8"?>
<svg xmlns="http://www.w3.org/2000/svg" xmlns:xlink="http://www.w3.org/1999/xlink" width="100" height="100" viewBox="-50 -60 478.766 511.579" version="1.1">
<defs>
<clipPath id="clip1">
  <path d="M 44 356 L 345 356 L 345 431.578125 L 44 431.578125 Z M 44 356 "/>
</clipPath>
<clipPath id="clip2">
  <path d="M 241 127 L 388.765625 127 L 388.765625 322 L 241 322 Z M 241 127 "/>
</clipPath>
<clipPath id="clip3">
  <path d="M 0 0 L 388.765625 0 L 388.765625 431.578125 L 0 431.578125 Z M 0 0 "/>
</clipPath>
<clipPath id="clip4">
  <path d="M 0 0 L 388.765625 0 L 388.765625 431.578125 L 0 431.578125 Z M 0 0 "/>
</clipPath>
<clipPath id="clip5">
  <path d="M 0 0 L 388.765625 0 L 388.765625 431.578125 L 0 431.578125 Z M 0 0 "/>
</clipPath>
</defs>
<g id="surface1" transform="translate(0 -20)">
<path style=" stroke:none;fill-rule:nonzero;fill:rgb(80.000305%,80.000305%,80.000305%);fill-opacity:1;" d="M 319.382812 416.578125 L 69.382812 416.578125 C 63.859375 416.578125 59.382812 412.101562 59.382812 406.578125 L 59.382812 381.578125 C 59.382812 376.058594 63.859375 371.578125 69.382812 371.578125 L 319.382812 371.578125 C 324.90625 371.578125 329.382812 376.058594 329.382812 381.578125 L 329.382812 406.578125 C 329.382812 412.101562 324.90625 416.578125 319.382812 416.578125 "/>
<path style=" stroke:none;fill-rule:nonzero;fill:rgb(100%,100%,100%);fill-opacity:1;" d="M 95.382812 413.578125 L 59.382812 413.578125 L 59.382812 368.578125 L 95.382812 368.578125 Z M 95.382812 413.578125 "/>
<g clip-path="url(#clip1)" clip-rule="nonzero">
<path style=" stroke:none;fill-rule:nonzero;fill:rgb(0%,0%,0%);fill-opacity:1;" d="M 74.382812 401.578125 L 314.382812 401.578125 L 314.382812 386.578125 L 74.382812 386.578125 Z M 319.382812 431.578125 L 69.382812 431.578125 C 55.597656 431.578125 44.382812 420.363281 44.382812 406.578125 L 44.382812 381.578125 C 44.382812 367.792969 55.597656 356.578125 69.382812 356.578125 L 319.382812 356.578125 C 333.167969 356.578125 344.382812 367.792969 344.382812 381.578125 L 344.382812 406.578125 C 344.382812 420.363281 333.167969 431.578125 319.382812 431.578125 "/>
</g>
<path style=" stroke:none;fill-rule:nonzero;fill:rgb(80.000305%,80.000305%,80.000305%);fill-opacity:1;" d="M 328.382812 371.578125 L 60.382812 371.578125 C 54.859375 371.578125 50.382812 367.101562 50.382812 361.578125 L 50.382812 315.578125 C 50.382812 310.058594 54.859375 305.578125 60.382812 305.578125 L 328.382812 305.578125 C 333.90625 305.578125 338.382812 310.058594 338.382812 315.578125 L 338.382812 361.578125 C 338.382812 367.101562 333.90625 371.578125 328.382812 371.578125 "/>
<path style=" stroke:none;fill-rule:nonzero;fill:rgb(100%,100%,100%);fill-opacity:1;" d="M 88.382812 359.578125 L 53.382812 359.578125 L 53.382812 314.578125 L 88.382812 314.578125 Z M 88.382812 359.578125 "/>
<path style=" stroke:none;fill-rule:nonzero;fill:rgb(0%,0%,0%);fill-opacity:1;" d="M 65.382812 356.578125 L 323.382812 356.578125 L 323.382812 320.578125 L 65.382812 320.578125 Z M 328.382812 386.578125 L 60.382812 386.578125 C 46.597656 386.578125 35.382812 375.363281 35.382812 361.578125 L 35.382812 315.578125 C 35.382812 301.792969 46.597656 290.578125 60.382812 290.578125 L 328.382812 290.578125 C 342.167969 290.578125 353.382812 301.792969 353.382812 315.578125 L 353.382812 361.578125 C 353.382812 375.363281 342.167969 386.578125 328.382812 386.578125 "/>
<path style="fill:none;stroke-width:30;stroke-linecap:round;stroke-linejoin:miter;stroke:rgb(0%,0%,0%);stroke-opacity:1;stroke-miterlimit:10;" d="M 0.0000125 0.001825 L 0.0000125 123.1737 " transform="matrix(1,0,0,-1,194.3828,138.1737)"/>
<path style="fill:none;stroke-width:30;stroke-linecap:round;stroke-linejoin:miter;stroke:rgb(0%,0%,0%);stroke-opacity:1;stroke-miterlimit:10;" d="M 0.0000125 -0.0001 L 72.000012 -0.0001 " transform="matrix(1,0,0,-1,158.3828,50.9999)"/>
<path style=" stroke:none;fill-rule:nonzero;fill:rgb(80.000305%,80.000305%,80.000305%);fill-opacity:1;" d="M 207.375 97.875 L 183.222656 97.875 C 178.054688 97.875 173.386719 100.945312 171.335938 105.683594 L 156.351562 140.308594 C 154.933594 143.589844 154.933594 147.3125 156.351562 150.59375 L 171.335938 185.21875 C 173.386719 189.957031 178.054688 193.023438 183.222656 193.023438 L 207.375 193.023438 C 212.539062 193.023438 217.210938 189.957031 219.261719 185.21875 L 234.242188 150.59375 C 235.660156 147.3125 235.660156 143.589844 234.242188 140.308594 L 219.261719 105.683594 C 217.210938 100.945312 212.539062 97.875 207.375 97.875 "/>
<path style=" stroke:none;fill-rule:nonzero;fill:rgb(0%,0%,0%);fill-opacity:1;" d="M 184.566406 178.023438 L 206.03125 178.023438 L 220.125 145.449219 L 206.03125 112.875 L 184.566406 112.875 L 170.46875 145.449219 Z M 207.375 208.023438 L 183.21875 208.023438 C 172.066406 208.023438 161.996094 201.410156 157.566406 191.171875 L 142.585938 156.550781 C 139.535156 149.5 139.535156 141.40625 142.585938 134.351562 L 157.566406 99.726562 C 161.996094 89.492188 172.066406 82.875 183.21875 82.875 L 207.375 82.875 C 218.53125 82.875 228.597656 89.492188 233.027344 99.726562 L 248.007812 134.351562 C 251.058594 141.40625 251.058594 149.5 248.007812 156.550781 L 233.027344 191.171875 C 228.597656 201.410156 218.53125 208.023438 207.375 208.023438 "/>
<path style=" stroke:none;fill-rule:nonzero;fill:rgb(80.000305%,80.000305%,80.000305%);fill-opacity:1;" d="M 315.148438 141.59375 C 347.523438 141.59375 373.765625 165.707031 373.765625 195.449219 C 373.765625 258.28125 324.917969 294.183594 315.148438 303.160156 C 305.378906 312.136719 256.527344 303.160156 256.527344 303.160156 L 256.527344 195.449219 C 256.527344 165.707031 282.773438 141.59375 315.148438 141.59375 "/>
<path style=" stroke:none;fill-rule:nonzero;fill:rgb(100%,100%,100%);fill-opacity:1;" d="M 367.382812 148.578125 C 344.382812 192.578125 300.382812 143.578125 282.382812 292.578125 C 282.382812 292.578125 293.382812 319.527344 275.382812 293.578125 C 257.382812 267.628906 277.382812 219.527344 277.382812 193.578125 C 277.382812 167.628906 299.382812 151.449219 317.382812 142.800781 C 335.382812 134.152344 371.382812 148.578125 367.382812 148.578125 "/>
<g clip-path="url(#clip2)" clip-rule="nonzero">
<path style=" stroke:none;fill-rule:nonzero;fill:rgb(0%,0%,0%);fill-opacity:1;" d="M 271.527344 290.894531 C 286.589844 292.851562 300.960938 293.359375 305.71875 291.894531 C 306.558594 291.152344 307.515625 290.328125 308.578125 289.417969 C 322.300781 277.625 358.765625 246.304688 358.765625 195.449219 C 358.765625 173.703125 339.199219 156.011719 315.148438 156.011719 C 291.09375 156.011719 271.527344 173.703125 271.527344 195.449219 Z M 295.691406 321.578125 C 291.265625 321.578125 286.347656 321.34375 280.875 320.886719 C 266.839844 319.714844 254.242188 317.417969 253.710938 317.320312 L 241.527344 315.082031 L 241.527344 195.449219 C 241.527344 157.804688 274.554688 127.179688 315.148438 127.179688 C 355.742188 127.179688 388.765625 157.804688 388.765625 195.449219 C 388.765625 259.207031 343.457031 298.125 328.566406 310.917969 C 327.292969 312.011719 326.191406 312.957031 325.511719 313.582031 C 319.585938 319.027344 310.335938 321.578125 295.691406 321.578125 "/>
</g>
<path style=" stroke:none;fill-rule:nonzero;fill:rgb(80.000305%,80.000305%,80.000305%);fill-opacity:1;" d="M 253 137.996094 C 285.375 137.996094 311.621094 162.105469 311.621094 191.851562 C 311.621094 254.683594 262.773438 290.585938 253 299.5625 C 243.230469 308.535156 194.382812 299.5625 194.382812 299.5625 L 194.382812 191.851562 C 194.382812 162.105469 220.628906 137.996094 253 137.996094 "/>
<path style=" stroke:none;fill-rule:nonzero;fill:rgb(100%,100%,100%);fill-opacity:1;" d="M 289.382812 148.578125 C 250.382812 170.578125 233.382812 149.578125 228.382812 302.578125 C 228.382812 302.578125 220.382812 317.527344 202.382812 291.578125 C 184.382812 265.628906 195.382812 219.527344 195.382812 193.578125 C 195.382812 167.628906 217.382812 151.449219 235.382812 142.800781 C 253.382812 134.152344 289.382812 148.578125 289.382812 148.578125 "/>
<path style=" stroke:none;fill-rule:nonzero;fill:rgb(0%,0%,0%);fill-opacity:1;" d="M 209.382812 287.296875 C 224.441406 289.253906 238.816406 289.761719 243.570312 288.296875 C 244.414062 287.550781 245.367188 286.730469 246.429688 285.820312 C 260.15625 274.03125 296.621094 242.707031 296.621094 191.851562 C 296.621094 170.105469 277.054688 152.410156 253 152.410156 C 228.949219 152.410156 209.382812 170.105469 209.382812 191.851562 Z M 233.546875 317.980469 C 229.117188 317.980469 224.199219 317.746094 218.730469 317.289062 C 204.695312 316.117188 192.097656 313.816406 191.566406 313.722656 L 179.382812 311.484375 L 179.382812 191.851562 C 179.382812 154.207031 212.40625 123.578125 253 123.578125 C 293.59375 123.578125 326.621094 154.207031 326.621094 191.851562 C 326.621094 255.609375 281.308594 294.53125 266.417969 307.320312 C 265.144531 308.414062 264.042969 309.359375 263.363281 309.984375 C 257.441406 315.425781 248.191406 317.980469 233.546875 317.980469 "/>
<path style=" stroke:none;fill-rule:nonzero;fill:rgb(80.000305%,80.000305%,80.000305%);fill-opacity:1;" d="M 73.617188 141.59375 C 41.246094 141.59375 15 165.707031 15 195.449219 C 15 258.28125 63.847656 294.183594 73.617188 303.160156 C 83.386719 312.136719 132.238281 303.160156 132.238281 303.160156 L 132.238281 195.449219 C 132.238281 165.707031 105.992188 141.59375 73.617188 141.59375 "/>
<path style=" stroke:none;fill-rule:nonzero;fill:rgb(100%,100%,100%);fill-opacity:1;" d="M 81.382812 139.917969 C 18.382812 178.578125 50.382812 236.027344 95.382812 296.578125 C 95.382812 296.578125 72.382812 312.914062 54.382812 286.96875 C 36.382812 261.015625 9.382812 226.417969 9.382812 200.46875 C 9.382812 174.519531 27.382812 148.566406 45.382812 139.917969 C 63.382812 131.269531 81.382812 139.917969 81.382812 139.917969 "/>
<path style=" stroke:none;fill-rule:nonzero;fill:rgb(0%,0%,0%);fill-opacity:1;" d="M 83.046875 291.894531 C 87.804688 293.359375 102.175781 292.851562 117.238281 290.894531 L 117.238281 195.449219 C 117.238281 173.703125 97.667969 156.011719 73.617188 156.011719 C 49.566406 156.011719 30 173.703125 30 195.449219 C 30 246.304688 66.464844 277.625 80.191406 289.417969 C 81.25 290.328125 82.207031 291.152344 83.046875 291.894531 M 93.074219 321.578125 C 78.425781 321.578125 69.179688 319.027344 63.253906 313.582031 C 62.574219 312.957031 61.472656 312.011719 60.195312 310.917969 C 45.308594 298.125 0 259.207031 0 195.449219 C 0 157.804688 33.027344 127.179688 73.617188 127.179688 C 114.210938 127.179688 147.238281 157.804688 147.238281 195.449219 L 147.238281 315.082031 L 135.054688 317.320312 C 134.523438 317.417969 121.925781 319.714844 107.890625 320.886719 C 102.417969 321.34375 97.5 321.578125 93.074219 321.578125 "/>
<path style=" stroke:none;fill-rule:nonzero;fill:rgb(80.000305%,80.000305%,80.000305%);fill-opacity:1;" d="M 135.765625 137.996094 C 103.390625 137.996094 77.144531 162.105469 77.144531 191.851562 C 77.144531 254.683594 125.992188 290.585938 135.765625 299.5625 C 145.535156 308.535156 194.382812 299.5625 194.382812 299.5625 L 194.382812 191.851562 C 194.382812 162.105469 168.136719 137.996094 135.765625 137.996094 "/>
<path style=" stroke:none;fill-rule:nonzero;fill:rgb(100%,100%,100%);fill-opacity:1;" d="M 152.382812 138.578125 C 116.382812 172.007812 122.382812 232.027344 167.382812 292.578125 C 167.382812 292.578125 149.382812 318.800781 131.382812 292.851562 C 113.382812 266.898438 82.382812 222.527344 82.382812 196.578125 C 82.382812 170.628906 104.382812 154.449219 122.382812 145.800781 C 140.382812 137.152344 152.382812 138.578125 152.382812 138.578125 "/>
<path style=" stroke:none;fill-rule:nonzero;fill:rgb(0%,0%,0%);fill-opacity:1;" d="M 145.195312 288.296875 C 149.960938 289.765625 164.335938 289.261719 179.382812 287.304688 L 179.382812 191.851562 C 179.382812 170.105469 159.816406 152.410156 135.765625 152.410156 C 111.714844 152.410156 92.144531 170.105469 92.144531 191.851562 C 92.144531 242.707031 128.609375 274.03125 142.339844 285.820312 C 143.398438 286.730469 144.351562 287.550781 145.195312 288.296875 M 155.21875 317.980469 C 140.574219 317.980469 131.328125 315.425781 125.398438 309.984375 C 124.722656 309.359375 123.621094 308.414062 122.347656 307.320312 C 107.457031 294.53125 62.144531 255.609375 62.144531 191.851562 C 62.144531 154.207031 95.171875 123.578125 135.765625 123.578125 C 176.355469 123.578125 209.382812 154.207031 209.382812 191.851562 L 209.382812 311.484375 L 197.199219 313.722656 C 196.671875 313.816406 184.074219 316.117188 170.035156 317.289062 C 164.566406 317.746094 159.644531 317.980469 155.21875 317.980469 "/>
<path style=" stroke:none;fill-rule:nonzero;fill:rgb(100%,100%,100%);fill-opacity:1;" d="M 104.382812 305.578125 L 136.234375 374.578125 "/>
<g clip-path="url(#clip3)" clip-rule="nonzero">
<path style="fill:none;stroke-width:30;stroke-linecap:butt;stroke-linejoin:miter;stroke:rgb(0%,0%,0%);stroke-opacity:1;stroke-miterlimit:10;" d="M 0.0000125 0.000875 L 31.851575 -68.999125 " transform="matrix(1,0,0,-1,104.3828,305.579)"/>
</g>
<path style=" stroke:none;fill-rule:nonzero;fill:rgb(100%,100%,100%);fill-opacity:1;" d="M 178.707031 305.578125 L 210.558594 374.578125 "/>
<g clip-path="url(#clip4)" clip-rule="nonzero">
<path style="fill:none;stroke-width:30;stroke-linecap:butt;stroke-linejoin:miter;stroke:rgb(0%,0%,0%);stroke-opacity:1;stroke-miterlimit:10;" d="M 0.00093125 0.000875 L 31.852494 -68.999125 " transform="matrix(1,0,0,-1,178.7061,305.579)"/>
</g>
<path style=" stroke:none;fill-rule:nonzero;fill:rgb(100%,100%,100%);fill-opacity:1;" d="M 253.03125 305.578125 L 284.882812 374.578125 "/>
<g clip-path="url(#clip5)" clip-rule="nonzero">
<path style="fill:none;stroke-width:30;stroke-linecap:butt;stroke-linejoin:miter;stroke:rgb(0%,0%,0%);stroke-opacity:1;stroke-miterlimit:10;" d="M 0.00095 0.000875 L 31.852512 -68.999125 " transform="matrix(1,0,0,-1,253.0303,305.579)"/>
</g>
</g>
</svg>

<svg xmlns="http://www.w3.org/2000/svg" width="100" height="100" viewBox="-50 -60 478.766 511.579"><defs><clipPath id="a"><path d="M44 356h301v75.578H44Zm0 0"/></clipPath><clipPath id="b"><path d="M241 127h147.766v195H241Zm0 0"/></clipPath><clipPath id="c"><path d="M0 0h388.766v431.578H0Zm0 0"/></clipPath><clipPath id="d"><path d="M0 0h388.766v431.578H0Zm0 0"/></clipPath><clipPath id="e"><path d="M0 0h388.766v431.578H0Zm0 0"/></clipPath></defs><path d="M319.383 416.578h-250c-5.524 0-10-4.476-10-10v-25c0-5.52 4.476-10 10-10h250c5.523 0 10 4.48 10 10v25c0 5.524-4.477 10-10 10" style="stroke:none;fill-rule:nonzero;fill:#ccc;fill-opacity:1" transform="translate(0 -20)"/><path d="M95.383 413.578h-36v-45h36Zm0 0" style="stroke:none;fill-rule:nonzero;fill:#fff;fill-opacity:1" transform="translate(0 -20)"/><g clip-path="url(#a)" transform="translate(0 -20)"><path d="M74.383 401.578h240v-15h-240Zm245 30h-250c-13.785 0-25-11.215-25-25v-25c0-13.785 11.215-25 25-25h250c13.785 0 25 11.215 25 25v25c0 13.785-11.215 25-25 25" style="stroke:none;fill-rule:nonzero;fill:#000;fill-opacity:1"/></g><path d="M328.383 371.578h-268c-5.524 0-10-4.476-10-10v-46c0-5.52 4.476-10 10-10h268c5.523 0 10 4.48 10 10v46c0 5.524-4.477 10-10 10" style="stroke:none;fill-rule:nonzero;fill:#ccc;fill-opacity:1" transform="translate(0 -20)"/><path d="M88.383 359.578h-35v-45h35Zm0 0" style="stroke:none;fill-rule:nonzero;fill:#fff;fill-opacity:1" transform="translate(0 -20)"/><path d="M65.383 356.578h258v-36h-258Zm263 30h-268c-13.785 0-25-11.215-25-25v-46c0-13.785 11.215-25 25-25h268c13.785 0 25 11.215 25 25v46c0 13.785-11.215 25-25 25" style="stroke:none;fill-rule:nonzero;fill:#000;fill-opacity:1" transform="translate(0 -20)"/><path d="M0 .002v123.172" style="fill:none;stroke-width:30;stroke-linecap:round;stroke-linejoin:miter;stroke:#000;stroke-opacity:1;stroke-miterlimit:10" transform="matrix(1 0 0 -1 194.383 118.174)"/><path d="M0 0h72" style="fill:none;stroke-width:30;stroke-linecap:round;stroke-linejoin:miter;stroke:#000;stroke-opacity:1;stroke-miterlimit:10" transform="matrix(1 0 0 -1 158.383 31)"/><path d="M207.375 97.875h-24.152c-5.168 0-9.836 3.07-11.887 7.809l-14.984 34.625a12.966 12.966 0 0 0 0 10.285l14.984 34.625a12.947 12.947 0 0 0 11.887 7.804h24.152c5.164 0 9.836-3.066 11.887-7.804l14.98-34.625a12.966 12.966 0 0 0 0-10.285l-14.98-34.625a12.955 12.955 0 0 0-11.887-7.809" style="stroke:none;fill-rule:nonzero;fill:#ccc;fill-opacity:1" transform="translate(0 -20)"/><path d="M184.566 178.023h21.465l14.094-32.574-14.094-32.574h-21.465l-14.097 32.574Zm22.809 30h-24.156a27.934 27.934 0 0 1-25.653-16.851l-14.98-34.621a28.066 28.066 0 0 1 0-22.2l14.98-34.624a27.94 27.94 0 0 1 25.653-16.852h24.156a27.936 27.936 0 0 1 25.652 16.852l14.98 34.625a28.066 28.066 0 0 1 0 22.199l-14.98 34.62a27.93 27.93 0 0 1-25.652 16.852" style="stroke:none;fill-rule:nonzero;fill:#000;fill-opacity:1" transform="translate(0 -20)"/><path d="M315.148 141.594c32.375 0 58.618 24.113 58.618 53.855 0 62.832-48.848 98.735-58.618 107.711-9.77 8.977-58.62 0-58.62 0V195.45c0-29.743 26.245-53.856 58.62-53.856" style="stroke:none;fill-rule:nonzero;fill:#ccc;fill-opacity:1" transform="translate(0 -20)"/><path d="M367.383 148.578c-23 44-67-5-85 144 0 0 11 26.95-7 1s2-74.05 2-100c0-25.95 22-42.129 40-50.777 18-8.649 54 5.777 50 5.777" style="stroke:none;fill-rule:nonzero;fill:#fff;fill-opacity:1" transform="translate(0 -20)"/><g clip-path="url(#b)" transform="translate(0 -20)"><path d="M271.527 290.895c15.063 1.957 29.434 2.464 34.192 1 .84-.743 1.797-1.567 2.86-2.477 13.722-11.793 50.187-43.113 50.187-93.969 0-21.746-19.567-39.437-43.618-39.437-24.054 0-43.62 17.691-43.62 39.437Zm24.164 30.683c-4.425 0-9.343-.234-14.816-.691-14.035-1.172-26.633-3.469-27.164-3.567l-12.184-2.238V195.449c0-37.644 33.028-68.27 73.621-68.27 40.594 0 73.618 30.626 73.618 68.27 0 63.758-45.309 102.676-60.2 115.469-1.273 1.094-2.375 2.039-3.054 2.664-5.926 5.445-15.176 7.996-29.82 7.996" style="stroke:none;fill-rule:nonzero;fill:#000;fill-opacity:1"/></g><path d="M253 137.996c32.375 0 58.621 24.11 58.621 53.856 0 62.832-48.848 98.734-58.621 107.71-9.77 8.973-58.617 0-58.617 0v-107.71c0-29.747 26.246-53.856 58.617-53.856" style="stroke:none;fill-rule:nonzero;fill:#ccc;fill-opacity:1" transform="translate(0 -20)"/><path d="M289.383 148.578c-39 22-56 1-61 154 0 0-8 14.95-26-11s-7-72.05-7-98c0-25.95 22-42.129 40-50.777 18-8.649 54 5.777 54 5.777" style="stroke:none;fill-rule:nonzero;fill:#fff;fill-opacity:1" transform="translate(0 -20)"/><path d="M209.383 287.297c15.058 1.957 29.433 2.465 34.187 1a247.7 247.7 0 0 1 2.86-2.477c13.726-11.789 50.191-43.113 50.191-93.968 0-21.747-19.566-39.442-43.621-39.442-24.05 0-43.617 17.695-43.617 39.442Zm24.164 30.683c-4.43 0-9.348-.234-14.817-.69-14.035-1.173-26.632-3.474-27.164-3.567l-12.183-2.239V191.852c0-37.645 33.023-68.274 73.617-68.274s73.621 30.629 73.621 68.274c0 63.757-45.312 102.68-60.203 115.468-1.273 1.094-2.375 2.04-3.055 2.664-5.922 5.442-15.172 7.996-29.816 7.996" style="stroke:none;fill-rule:nonzero;fill:#000;fill-opacity:1" transform="translate(0 -20)"/><path d="M73.617 141.594c-32.37 0-58.617 24.113-58.617 53.855 0 62.832 48.848 98.735 58.617 107.711 9.77 8.977 58.621 0 58.621 0V195.45c0-29.743-26.246-53.856-58.62-53.856" style="stroke:none;fill-rule:nonzero;fill:#ccc;fill-opacity:1" transform="translate(0 -20)"/><path d="M81.383 139.918c-63 38.66-31 96.11 14 156.66 0 0-23 16.336-41-9.61-18-25.952-45-60.55-45-86.5 0-25.948 18-51.902 36-60.55 18-8.648 36 0 36 0" style="stroke:none;fill-rule:nonzero;fill:#fff;fill-opacity:1" transform="translate(0 -20)"/><path d="M83.047 291.895c4.758 1.464 19.129.957 34.191-1v-95.446c0-21.746-19.57-39.437-43.62-39.437-24.052 0-43.618 17.691-43.618 39.437 0 50.856 36.465 82.176 50.191 93.969 1.059.91 2.016 1.734 2.856 2.477m10.027 29.683c-14.648 0-23.894-2.55-29.82-7.996-.68-.625-1.781-1.57-3.059-2.664C45.31 298.125 0 259.207 0 195.449c0-37.644 33.027-68.27 73.617-68.27 40.594 0 73.621 30.626 73.621 68.27v119.633l-12.183 2.238c-.532.098-13.13 2.395-27.164 3.567-5.473.457-10.391.691-14.817.691" style="stroke:none;fill-rule:nonzero;fill:#000;fill-opacity:1" transform="translate(0 -20)"/><path d="M135.766 137.996c-32.375 0-58.621 24.11-58.621 53.856 0 62.832 48.847 98.734 58.62 107.71 9.77 8.973 58.618 0 58.618 0v-107.71c0-29.747-26.246-53.856-58.617-53.856" style="stroke:none;fill-rule:nonzero;fill:#ccc;fill-opacity:1" transform="translate(0 -20)"/><path d="M152.383 138.578c-36 33.43-30 93.45 15 154 0 0-18 26.223-36 .274-18-25.954-49-70.325-49-96.274 0-25.95 22-42.129 40-50.777 18-8.649 30-7.223 30-7.223" style="stroke:none;fill-rule:nonzero;fill:#fff;fill-opacity:1" transform="translate(0 -20)"/><path d="M145.195 288.297c4.766 1.469 19.14.965 34.188-.992v-95.453c0-21.747-19.567-39.442-43.617-39.442-24.051 0-43.621 17.695-43.621 39.442 0 50.855 36.464 82.18 50.195 93.968 1.058.91 2.012 1.73 2.855 2.477m10.024 29.683c-14.645 0-23.89-2.554-29.82-7.996-.676-.625-1.778-1.57-3.051-2.664-14.891-12.789-60.203-51.71-60.203-115.468 0-37.645 33.027-68.274 73.62-68.274 40.59 0 73.618 30.629 73.618 68.274v119.632l-12.184 2.239c-.527.093-13.125 2.394-27.164 3.566-5.469.457-10.39.691-14.816.691" style="stroke:none;fill-rule:nonzero;fill:#000;fill-opacity:1" transform="translate(0 -20)"/><path d="m104.383 305.578 31.851 69" style="stroke:none;fill-rule:nonzero;fill:#fff;fill-opacity:1" transform="translate(0 -20)"/><g clip-path="url(#c)" transform="translate(0 -20)"><path d="m0 0 31.852-69" style="fill:none;stroke-width:30;stroke-linecap:butt;stroke-linejoin:miter;stroke:#000;stroke-opacity:1;stroke-miterlimit:10" transform="matrix(1 0 0 -1 104.383 305.579)"/></g><path d="m178.707 305.578 31.852 69" style="stroke:none;fill-rule:nonzero;fill:#fff;fill-opacity:1" transform="translate(0 -20)"/><g clip-path="url(#d)" transform="translate(0 -20)"><path d="m0 0 31.852-69" style="fill:none;stroke-width:30;stroke-linecap:butt;stroke-linejoin:miter;stroke:#000;stroke-opacity:1;stroke-miterlimit:10" transform="matrix(1 0 0 -1 178.706 305.579)"/></g><path d="m253.031 305.578 31.852 69" style="stroke:none;fill-rule:nonzero;fill:#fff;fill-opacity:1" transform="translate(0 -20)"/><g clip-path="url(#e)" transform="translate(0 -20)"><path d="m0 0 31.853-69" style="fill:none;stroke-width:30;stroke-linecap:butt;stroke-linejoin:miter;stroke:#000;stroke-opacity:1;stroke-miterlimit:10" transform="matrix(1 0 0 -1 253.03 305.579)"/></g></svg>
